X:1
T:Branda-Schottisch
L:1/16
Q:70
M:2/4
K:C
G2GG E2EE | D2G2 B2d2 | G2GG F2FF | E2G2 c2e2 | G2GG E2EE |
D2G2 B2d2 | G2GG g2B2 | c6z2 :: F3E FEFG | A2G2 e2GA 